X:SSF 14-18 017
T:The Blarney Pilgrim
M:6/8
K:G
P:A
D2D-DEG A3-ABc BAG AGE |1,3 G2A GED :|2,4 GED D3 :|
P:B
d3 dBG A2A BAG d3 dBG ABA GBd g2e dBG AGA BGE BcB AGE |1 GED D3 :|2 GED DEG
P:C
A3 B3 A3-ABc BAG AGE |1,3 G2A GED :|2,4 GED D3 :| 

